components/AppDevelopmentCommon/Svg/svgs/titledPython.svg

<svg width="85" height="143" viewBox="0 0 85 143" fill="none" xmlns="http://www.w3.org/2000/svg">
<path d="M21.774 124.126C21.774 125.17 21.414 126.04 20.694 126.736C19.986 127.42 18.9 127.762 17.436 127.762H15.024V133H13.386V120.454H17.436C18.852 120.454 19.926 120.796 20.658 121.48C21.402 122.164 21.774 123.046 21.774 124.126ZM17.436 126.412C18.348 126.412 19.02 126.214 19.452 125.818C19.884 125.422 20.1 124.858 20.1 124.126C20.1 122.578 19.212 121.804 17.436 121.804H15.024V126.412H17.436ZM32.3058 123.136L26.3658 137.644H24.6738L26.6178 132.892L22.6398 123.136H24.4578L27.5538 131.128L30.6138 123.136H32.3058ZM35.9504 124.486V130.3C35.9504 130.78 36.0524 131.122 36.2564 131.326C36.4604 131.518 36.8144 131.614 37.3184 131.614H38.5244V133H37.0484C36.1364 133 35.4524 132.79 34.9964 132.37C34.5404 131.95 34.3124 131.26 34.3124 130.3V124.486H33.0344V123.136H34.3124V120.652H35.9504V123.136H38.5244V124.486H35.9504ZM45.405 122.956C46.149 122.956 46.821 123.118 47.421 123.442C48.021 123.754 48.489 124.228 48.825 124.864C49.173 125.5 49.347 126.274 49.347 127.186V133H47.727V127.42C47.727 126.436 47.481 125.686 46.989 125.17C46.497 124.642 45.825 124.378 44.973 124.378C44.109 124.378 43.419 124.648 42.903 125.188C42.399 125.728 42.147 126.514 42.147 127.546V133H40.509V119.68H42.147V124.54C42.471 124.036 42.915 123.646 43.479 123.37C44.055 123.094 44.697 122.956 45.405 122.956ZM56.3247 133.162C55.4007 133.162 54.5607 132.952 53.8047 132.532C53.0607 132.112 52.4727 131.518 52.0407 130.75C51.6207 129.97 51.4107 129.07 51.4107 128.05C51.4107 127.042 51.6267 126.154 52.0587 125.386C52.5027 124.606 53.1027 124.012 53.8587 123.604C54.6147 123.184 55.4607 122.974 56.3967 122.974C57.3327 122.974 58.1787 123.184 58.9347 123.604C59.6907 124.012 60.2847 124.6 60.7167 125.368C61.1607 126.136 61.3827 127.03 61.3827 128.05C61.3827 129.07 61.1547 129.97 60.6987 130.75C60.2547 131.518 59.6487 132.112 58.8807 132.532C58.1127 132.952 57.2607 133.162 56.3247 133.162ZM56.3247 131.722C56.9127 131.722 57.4647 131.584 57.9807 131.308C58.4967 131.032 58.9107 130.618 59.2227 130.066C59.5467 129.514 59.7087 128.842 59.7087 128.05C59.7087 127.258 59.5527 126.586 59.2407 126.034C58.9287 125.482 58.5207 125.074 58.0167 124.81C57.5127 124.534 56.9667 124.396 56.3787 124.396C55.7787 124.396 55.2267 124.534 54.7227 124.81C54.2307 125.074 53.8347 125.482 53.5347 126.034C53.2347 126.586 53.0847 127.258 53.0847 128.05C53.0847 128.854 53.2287 129.532 53.5167 130.084C53.8167 130.636 54.2127 131.05 54.7047 131.326C55.1967 131.59 55.7367 131.722 56.3247 131.722ZM68.3424 122.956C69.5424 122.956 70.5144 123.322 71.2584 124.054C72.0024 124.774 72.3744 125.818 72.3744 127.186V133H70.7544V127.42C70.7544 126.436 70.5084 125.686 70.0164 125.17C69.5244 124.642 68.8524 124.378 68.0004 124.378C67.1364 124.378 66.4464 124.648 65.9304 125.188C65.4264 125.728 65.1744 126.514 65.1744 127.546V133H63.5364V123.136H65.1744V124.54C65.4984 124.036 65.9364 123.646 66.4884 123.37C67.0524 123.094 67.6704 122.956 68.3424 122.956Z" fill="#A0A0A0"/>
<path d="M41.9947 0.000685002C38.4902 0.0167542 35.1432 0.315948 32.1977 0.837816C23.521 2.37128 21.9457 5.58207 21.9457 11.5024V19.322H42.4489V21.9283H14.2516C8.29255 21.9283 3.0752 25.5125 1.44339 32.3304C-0.43923 40.1454 -0.522579 45.0221 1.44339 53.1822C2.90085 59.2564 6.38087 63.5843 12.34 63.5843H19.3895V54.2106C19.3895 47.4386 25.2445 41.4646 32.1977 41.4646H52.6756C58.377 41.4646 62.9275 36.7678 62.9275 31.0388V11.5032C62.9275 5.94247 58.2401 1.76524 52.6763 0.837816C49.1543 0.250906 45.4999 -0.0153842 41.9947 0.000685002ZM30.9069 6.28988C33.0251 6.28988 34.754 8.04831 34.754 10.2115C34.754 12.3663 33.0251 14.1087 30.9077 14.1087C28.7819 14.1087 27.0599 12.3663 27.0599 10.2115C27.0599 8.04831 28.7819 6.28988 30.9069 6.28988Z" fill="#AFAFAF"/>
<path d="M65.4841 21.9282V31.0387C65.4841 38.1023 59.4998 44.0471 52.6759 44.0471H32.1973C26.5876 44.0471 21.9453 48.8518 21.9453 54.473V74.0101C21.9453 79.5701 26.7773 82.8405 32.1973 84.436C38.687 86.3452 44.9107 86.6903 52.6751 84.436C57.8374 82.94 62.9271 79.9305 62.9271 74.0101V66.1905H42.4484V63.5843H73.1783C79.1374 63.5843 81.358 59.4246 83.4302 53.1821C85.5705 46.7552 85.4795 40.5746 83.4302 32.3304C81.9575 26.3947 79.145 21.9282 73.1783 21.9282H65.4841ZM53.9659 71.4031C56.0917 71.4031 57.8137 73.1462 57.8137 75.301C57.8137 77.4642 56.0917 79.2227 53.9659 79.2227C51.8478 79.2227 50.1196 77.4642 50.1196 75.301C50.1196 73.1462 51.8478 71.4031 53.9659 71.4031Z" fill="#DBDBDB"/>
</svg>

<svg xmlns="http://www.w3.org/2000/svg" width="85" height="143" fill="none">
  <path fill="#A0A0A0" d="M21.774 124.126c0 1.044-.36 1.914-1.08 2.61-.708.684-1.794 1.026-3.258 1.026h-2.412V133h-1.638v-12.546h4.05c1.416 0 2.49.342 3.222 1.026.744.684 1.116 1.566 1.116 2.646Zm-4.338 2.286c.912 0 1.584-.198 2.016-.594.432-.396.648-.96.648-1.692 0-1.548-.888-2.322-2.664-2.322h-2.412v4.608h2.412Zm14.87-3.276-5.94 14.508h-1.692l1.944-4.752-3.978-9.756h1.818l3.096 7.992 3.06-7.992h1.692Zm3.644 1.35v5.814c0 .48.102.822.306 1.026.204.192.558.288 1.062.288h1.206V133h-1.476c-.912 0-1.596-.21-2.052-.63-.456-.42-.684-1.11-.684-2.07v-5.814h-1.278v-1.35h1.278v-2.484h1.638v2.484h2.574v1.35H35.95Zm9.455-1.53c.744 0 1.416.162 2.016.486.6.312 1.068.786 1.404 1.422.348.636.522 1.41.522 2.322V133h-1.62v-5.58c0-.984-.246-1.734-.738-2.25-.492-.528-1.164-.792-2.016-.792-.864 0-1.554.27-2.07.81-.504.54-.756 1.326-.756 2.358V133h-1.638v-13.32h1.638v4.86a3.24 3.24 0 0 1 1.332-1.17c.576-.276 1.218-.414 1.926-.414Zm10.92 10.206c-.924 0-1.764-.21-2.52-.63a4.58 4.58 0 0 1-1.764-1.782c-.42-.78-.63-1.68-.63-2.7 0-1.008.216-1.896.648-2.664a4.51 4.51 0 0 1 1.8-1.782c.756-.42 1.602-.63 2.538-.63.936 0 1.782.21 2.538.63.756.408 1.35.996 1.782 1.764.444.768.666 1.662.666 2.682s-.228 1.92-.684 2.7a4.634 4.634 0 0 1-1.818 1.782c-.768.42-1.62.63-2.556.63Zm0-1.44c.588 0 1.14-.138 1.656-.414.516-.276.93-.69 1.242-1.242.324-.552.486-1.224.486-2.016s-.156-1.464-.468-2.016c-.312-.552-.72-.96-1.224-1.224a3.356 3.356 0 0 0-1.638-.414c-.6 0-1.152.138-1.656.414-.492.264-.888.672-1.188 1.224-.3.552-.45 1.224-.45 2.016 0 .804.144 1.482.432 2.034.3.552.696.966 1.188 1.242a3.372 3.372 0 0 0 1.62.396Zm12.017-8.766c1.2 0 2.172.366 2.916 1.098.744.72 1.116 1.764 1.116 3.132V133h-1.62v-5.58c0-.984-.246-1.734-.738-2.25-.492-.528-1.164-.792-2.016-.792-.864 0-1.554.27-2.07.81-.504.54-.756 1.326-.756 2.358V133h-1.638v-9.864h1.638v1.404a3.266 3.266 0 0 1 1.314-1.17 4.16 4.16 0 0 1 1.854-.414Z" />
  <path fill="#AFAFAF" d="M41.995 0c-3.505.017-6.852.316-9.797.838C23.52 2.37 21.946 5.582 21.946 11.502v7.82h20.503v2.606H14.252c-5.96 0-11.177 3.584-12.809 10.402-1.882 7.815-1.966 12.692 0 20.852 1.458 6.074 4.938 10.402 10.897 10.402h7.05v-9.373c0-6.772 5.854-12.746 12.808-12.746h20.478c5.701 0 10.252-4.697 10.252-10.426V11.503c0-5.56-4.688-9.738-10.252-10.665C49.154.25 45.5-.015 41.995 0ZM30.907 6.29c2.118 0 3.847 1.758 3.847 3.921 0 2.155-1.729 3.898-3.846 3.898-2.126 0-3.848-1.743-3.848-3.898 0-2.163 1.722-3.921 3.847-3.921Z" />
  <path fill="#DBDBDB" d="M65.484 21.928v9.11c0 7.064-5.984 13.01-12.808 13.01H32.197c-5.61 0-10.252 4.804-10.252 10.425V74.01c0 5.56 4.832 8.83 10.252 10.426 6.49 1.91 12.714 2.254 20.478 0 5.162-1.496 10.252-4.506 10.252-10.426v-7.82H42.448v-2.606h30.73c5.96 0 8.18-4.16 10.252-10.402 2.14-6.427 2.05-12.607 0-20.852-1.473-5.935-4.285-10.402-10.252-10.402h-7.694ZM53.966 71.403c2.126 0 3.848 1.743 3.848 3.898 0 2.163-1.722 3.922-3.848 3.922-2.118 0-3.846-1.759-3.846-3.922 0-2.155 1.728-3.898 3.846-3.898Z" />
</svg>
